X:1
T:James Gibb editions
T:O memoriale - Palestrina
T:#
%%score [ 1 2 3 4 ]
L:1/8
Q:1/4=96
M:4/4
K:Ab
V:1 treble nm="Soprano" snm="S"
V:2 treble nm="Alto" snm="A"
V:3 treble-8 nm="Tenor" snm="T"
V:4 bass nm="Bass" snm="B"
V:1
"^O memoriale""^Giovanni Pierluigi da Palestrina\n(1526-94)" F4 F2 F2 | F4 G4 | A4 A2 G2 | %3
w: O me- mo-|ri- a-|le mor- tis|
 F2 F2 =E4 | F4 G2 G2 | G4 G2 G2 | (B4 A2) G2 | G4 F4 | =E8 | F2 F2 =E2 F2 | G8 | F4 z2 A2- | %12
w: Do- mi- ni|pa- nis vi-|vus, vi- tam|prae\- * stans|ho- mi-|ni.|Pre- sta me- ae|men-|ti de|
 A2 B2 c2 B2 | A4 (G2 A2) | (AG) F2 F2 =E2 | !fermata!F8 |1 c3 c c2 c2 || c2 c2 f2 f2 | %18
w: * te vi- ve-|re, te *|dul\- * ce sa- pe-|re.|pi- e pel- li-|ca- ne, Je- su|
 (e2 c2 e3) e | =d2 B4 BB | B2 B2 c4 | BB c4 A2 | !fermata!G8 :|2 F8 || !fermata!F8 |] %25
w: Do\- * * mi-|ne, me im- mun-|dum mun- da|tu- o san- gui-|ne.|A-|men.|
V:2
 C4 C2 C2 | C4 E4 | E4 E2 E2 | C2 C2 C4 | =D4 E2 E2 | E4 E2 E2 | (E2 =D2 F2) E2 | (E2 C4) B,2 | %8
w: O me- mo-|ri- a-|le mor- tis|Do- mi- ni|pa- nis vi-|vus, vi- tam|prae\- * * stans|ho\- * mi-|
 C8 | C2 C2 C2 C2 | E8 | =D4 z2 F2- | F2 F2 A2 G2 | F4 E4 | A,2 (A,B,) C2 C2 | !fermata!C8 |1 %16
w: ni.|Pre- sta me- ae|men-|ti de|* te vi- ve-|re, te|dul- ce * sa- pe-|re.|
 A3 A A2 A2 || G2 A2 B2 B2 | (c2 A2 G2) =A2 | B2 G4 GG | F2 G2 A4 | GG A4 F2 | !fermata!=E8 :|2 %23
w: pi- e pel- li-|ca- ne, Je- su|Do\- * * mi-|ne, me im- mun-|dum mun- da|tu- o san- gui-|ne.|
 =D8 || !fermata!C8 |] %25
w: A-|men.|
V:3
 A4 A2 A2 | A4 B4 | c4 c2 B2 | A2 A2 G4 | B4 B2 B2 | B4 c2 c2 | (B4 c2) c2 | (B2 E2) F4 | G8 | %9
w: O me- mo-|ri- a-|le mor- tis|Do- mi- ni|pa- nis vi-|vus, vi- tam|prae\- * stans|ho\- * mi-|ni.|
 A2 A2 G2 A2 | B8 | B4 z2 c2- | c2 =d2 e2 e2 | c4 c4 | F2 F2 G2 G2 | !fermata!A8 |1 f3 f f2 f2 || %17
w: Pre- sta me- ae|men-|ti de|* te vi- ve-|re, te|dul- ce sa- pe-|re.|pi- e pel- li-|
 =e2 f2 d2 d2 | (c2 f2 e2) c2 | B2 e4 ee | =d2 e2 (ABcd) | e e c2 f4 | !fermata!c8 :|2 B8 || %24
w: ca- ne, Je- su|Do\- * * mi-|ne, me im- mun-|dum mun- da * * *|tu- o san- gui-|ne.|A-|
 !fermata!=A8 |] %25
w: men.|
V:4
 F,4 F,2 F,2 | F,4 E,4 | A,4 A,2 E,2 | F,2 F,2 C,4 | B,,4 E,2 E,2 | E,4 E,2 E,2 | (G,4 F,2) C,2 | %7
w: O- me- mo-|ri- a-|le mor- tis|Do- mi- ni|pa- nis vi-|vus, vi- tam|prae\- * stans|
 E,4 D,4 | C,8 | F,2 F,2 C,2 F,2 | E,8 | B,,4 z2 F,2- | F,2 B,2 A,2 E,2 | F,4 C,4 | %14
w: ho- mi-|ni.|Pre- sta me- ae|men-|ti de|* te vi- ve-|re, te|
 D,2 D,2 C,2 C,2 | !fermata!F,8 |1 z8 || z8 | z8 | z8 | z8 | z8 | z8 :|2 B,,8 || %24
w: dul- ce sa- pe-|re.||||||||A-|
 !fermata![F,,F,]8 |] %25
w: men.|

